X: 31386
T: Paddy O'Snap's
R: slip jig
M: 9/8
K: Gmajor
|:B2 G GFG BAG|c2A ABG FED|B2 G GFG BAG|ABc DEF G2A:|
|:d2D DDD GDG|E2 A ABG ABc|d2 D DED GDG|ABc DEF G2A:|

